icons/svg/road_shields/h_us_business_icon_shield.svg

<?xml version="1.0" encoding="UTF-8" standalone="no"?>
<!-- Generator: Adobe Illustrator 16.0.4, SVG Export Plug-In . SVG Version: 6.00 Build 0)  -->

<svg
   xmlns:dc="http://purl.org/dc/elements/1.1/"
   xmlns:cc="http://creativecommons.org/ns#"
   xmlns:rdf="http://www.w3.org/1999/02/22-rdf-syntax-ns#"
   xmlns:svg="http://www.w3.org/2000/svg"
   xmlns="http://www.w3.org/2000/svg"
   xmlns:sodipodi="http://sodipodi.sourceforge.net/DTD/sodipodi-0.dtd"
   xmlns:inkscape="http://www.inkscape.org/namespaces/inkscape"
   version="1.1"
   id="Слой_1"
   x="0px"
   y="0px"
   width="25"
   height="41"
   viewBox="0 0 25 41"
   enable-background="new 0 0 17.143 17.17"
   xml:space="preserve"
   inkscape:version="0.91 r"
   sodipodi:docname="h_us_business_icon_shield.svg"><metadata
     id="metadata13"><rdf:RDF><cc:Work
         rdf:about=""><dc:format>image/svg+xml</dc:format><dc:type
           rdf:resource="http://purl.org/dc/dcmitype/StillImage" /><dc:title /></cc:Work></rdf:RDF></metadata><defs
     id="defs11" /><sodipodi:namedview
     pagecolor="#ffffff"
     bordercolor="#666666"
     borderopacity="1"
     objecttolerance="10"
     gridtolerance="10"
     guidetolerance="10"
     inkscape:pageopacity="0"
     inkscape:pageshadow="2"
     inkscape:window-width="1920"
     inkscape:window-height="1004"
     id="namedview9"
     showgrid="false"
     inkscape:zoom="19.43823"
     inkscape:cx="-1.2459487"
     inkscape:cy="37.883055"
     inkscape:window-x="1680"
     inkscape:window-y="0"
     inkscape:window-maximized="1"
     inkscape:current-layer="Слой_1" /><rect
     style="color:#000000;clip-rule:evenodd;display:inline;overflow:visible;visibility:visible;opacity:1;isolation:auto;mix-blend-mode:normal;color-interpolation:sRGB;color-interpolation-filters:linearRGB;solid-color:#000000;solid-opacity:1;fill:#ffffff;fill-opacity:1;fill-rule:evenodd;stroke:#515151;stroke-width:1.08273661;stroke-linecap:butt;stroke-linejoin:miter;stroke-miterlimit:4;stroke-dasharray:none;stroke-dashoffset:0;stroke-opacity:1;marker:none;color-rendering:auto;image-rendering:auto;shape-rendering:auto;text-rendering:auto;enable-background:accumulate"
     id="rect4135"
     width="19.803215"
     height="7.0026784"
     x="2.598392"
     y="0.56049848"
     ry="0" /><path
     inkscape:connector-curvature="0"
     id="path4142"
     style="font-style:normal;font-variant:normal;font-weight:bold;font-stretch:normal;font-size:medium;line-height:125%;font-family:Sans;-inkscape-font-specification:'Sans Bold';letter-spacing:0px;word-spacing:0px;fill:#515151;fill-opacity:1;stroke:none;stroke-width:1px;stroke-linecap:butt;stroke-linejoin:miter;stroke-opacity:1"
     d="m 7.1976347,3.5684076 q 0.304907,0 0.4623864,-0.1164436 0.1574793,-0.1164437 0.1574793,-0.3435088 0,-0.2241541 -0.1574793,-0.3405977 Q 7.5025417,2.6485027 7.1976347,2.6485027 l -0.7136832,0 0,0.9199049 0.7136832,0 z m 0.043558,1.9009427 q 0.3886725,0 0.5830088,-0.1426436 0.1976869,-0.1426434 0.1976869,-0.4308415 0,-0.2823758 -0.1943362,-0.4221082 Q 7.6332161,4.3311135 7.2411929,4.3311135 l -0.7572414,0 0,1.1382368 0.7572414,0 z M 8.4407168,3.9060942 q 0.4154776,0.1047993 0.6433202,0.3871751 0.2278425,0.2823759 0.2278425,0.6928397 0,0.6287958 -0.4891913,0.9373715 -0.4891913,0.3085756 -1.4876778,0.3085756 l -2.1410498,0 0,-4.3462593 1.9366616,0 q 1.0420445,0 1.5077815,0.2736426 0.4690876,0.2736426 0.4690876,0.8762385 0,0.317309 -0.1708819,0.541463 -0.1708819,0.2212429 -0.4958926,0.3289533 z" /><path
     inkscape:connector-curvature="0"
     id="path4144"
     style="font-style:normal;font-variant:normal;font-weight:bold;font-stretch:normal;font-size:medium;line-height:125%;font-family:Sans;-inkscape-font-specification:'Sans Bold';letter-spacing:0px;word-spacing:0px;fill:#515151;fill-opacity:1;stroke:none;stroke-width:1px;stroke-linecap:butt;stroke-linejoin:miter;stroke-opacity:1"
     d="m 10.420937,1.8857968 1.28999,0 0,2.6054268 q 0,0.5385519 0.201038,0.7714391 0.204389,0.2299763 0.663424,0.2299763 0.462386,0 0.663424,-0.2299763 0.204388,-0.2328872 0.204388,-0.7714391 l 0,-2.6054268 1.289991,0 0,2.6054268 q 0,0.9228159 -0.53275,1.374035 -0.53275,0.4512192 -1.625053,0.4512192 -1.088954,0 -1.621703,-0.4512192 -0.532749,-0.4512191 -0.532749,-1.374035 l 0,-2.6054268 z" /><path
     inkscape:connector-curvature="0"
     id="path4146"
     style="font-style:normal;font-variant:normal;font-weight:bold;font-stretch:normal;font-size:medium;line-height:125%;font-family:Sans;-inkscape-font-specification:'Sans Bold';letter-spacing:0px;word-spacing:0px;fill:#515151;fill-opacity:1;stroke:none;stroke-width:1px;stroke-linecap:butt;stroke-linejoin:miter;stroke-opacity:1"
     d="m 19.477678,2.0226181 0,0.9199049 q -0.412128,-0.16011 -0.804151,-0.2416206 -0.392023,-0.08151 -0.740488,-0.08151 -0.462386,0 -0.683527,0.1106214 -0.221141,0.1106215 -0.221141,0.3435088 0,0.1746655 0.147427,0.2736426 0.150778,0.096066 0.542802,0.1659321 l 0.549502,0.096066 q 0.834306,0.1455545 1.186121,0.4424859 0.351816,0.2969313 0.351816,0.8442164 0,0.7190396 -0.492542,1.0712817 -0.489192,0.3493309 -1.497729,0.3493309 -0.47579,0 -0.954929,-0.0786 -0.47914,-0.078599 -0.958279,-0.2328869 l 0,-0.9461048 q 0.479139,0.221243 0.924772,0.3347755 0.448985,0.1106215 0.864462,0.1106215 0.422179,0 0.646671,-0.1222658 0.224492,-0.1222658 0.224492,-0.349331 0,-0.2037764 -0.154128,-0.3143979 -0.15078,-0.1106214 -0.606464,-0.1979541 L 17.303122,4.4242684 Q 16.552581,4.2845361 16.204116,3.9788715 15.859002,3.6732069 15.859002,3.1550326 q 0,-0.6491733 0.48249,-0.9985042 0.48249,-0.349331 1.387159,-0.349331 0.412127,0 0.847708,0.055311 0.435582,0.052399 0.901319,0.16011 z" /></svg>

<svg width="25" height="41" viewBox="0 0 25 41" fill="none" xmlns="http://www.w3.org/2000/svg">
<path d="M22.4016 0.560486H2.59839V7.56316H22.4016V0.560486Z" fill="white" stroke="#515151" stroke-width="1.08274"/>
<path d="M7.19763 3.56841C7.40091 3.56841 7.55504 3.5296 7.66002 3.45197C7.76501 3.37434 7.8175 3.25984 7.8175 3.10846C7.8175 2.95903 7.76501 2.84549 7.66002 2.76786C7.55504 2.68829 7.40091 2.64851 7.19763 2.64851H6.48395V3.56841H7.19763ZM7.24119 5.46936C7.50031 5.46936 7.69464 5.42181 7.8242 5.32671C7.95599 5.23162 8.02189 5.088 8.02189 4.89587C8.02189 4.70762 7.95711 4.56692 7.82755 4.47376C7.69799 4.37867 7.50254 4.33112 7.24119 4.33112H6.48395V5.46936H7.24119V5.46936ZM8.44072 3.9061C8.7177 3.97597 8.93214 4.10503 9.08404 4.29328C9.23593 4.48153 9.31188 4.71247 9.31188 4.98612C9.31188 5.40531 9.14882 5.71777 8.82269 5.92349C8.49656 6.1292 8.00067 6.23206 7.33501 6.23206H5.19396V1.8858H7.13062C7.82532 1.8858 8.32791 1.97702 8.6384 2.15945C8.95113 2.34187 9.10749 2.63395 9.10749 3.03568C9.10749 3.24722 9.05053 3.42771 8.93661 3.57715C8.82269 3.72464 8.65739 3.83429 8.44072 3.9061V3.9061Z" fill="#515151"/>
<path d="M10.4209 1.8858H11.7109V4.49123C11.7109 4.85026 11.7779 5.10741 11.912 5.26267C12.0482 5.41599 12.2694 5.49265 12.5754 5.49265C12.8836 5.49265 13.1048 5.41599 13.2388 5.26267C13.3751 5.10741 13.4432 4.85026 13.4432 4.49123V1.8858H14.7332V4.49123C14.7332 5.10644 14.5556 5.56445 14.2004 5.86527C13.8453 6.16608 13.3036 6.31648 12.5754 6.31648C11.8494 6.31648 11.3089 6.16608 10.9537 5.86527C10.5985 5.56445 10.4209 5.10644 10.4209 4.49123V1.8858V1.8858Z" fill="#515151"/>
<path d="M19.4777 2.02261V2.94252C19.2029 2.83578 18.9349 2.75524 18.6735 2.70089C18.4122 2.64655 18.1653 2.61938 17.933 2.61938C17.6248 2.61938 17.3969 2.65626 17.2495 2.73001C17.1021 2.80375 17.0284 2.91826 17.0284 3.07352C17.0284 3.18996 17.0775 3.28117 17.1758 3.34716C17.2763 3.4112 17.4572 3.46651 17.7186 3.51309L18.2681 3.60916C18.8243 3.70619 19.2197 3.85369 19.4542 4.05164C19.6888 4.2496 19.806 4.531 19.806 4.89586C19.806 5.37522 19.6419 5.73231 19.3135 5.96714C18.9874 6.20003 18.4881 6.31647 17.8158 6.31647C17.4986 6.31647 17.1803 6.29027 16.8608 6.23787C16.5414 6.18547 16.222 6.10784 15.9026 6.00498V5.05888C16.222 5.20637 16.5302 5.31797 16.8273 5.39365C17.1267 5.4674 17.4148 5.50428 17.6918 5.50428C17.9732 5.50428 18.1888 5.46352 18.3385 5.38201C18.4881 5.3005 18.563 5.18406 18.563 5.03268C18.563 4.89683 18.5116 4.79203 18.4088 4.71828C18.3083 4.64453 18.1062 4.57855 17.8024 4.52033L17.3031 4.42426C16.8028 4.33111 16.4364 4.18264 16.2041 3.97886C15.974 3.77509 15.859 3.50047 15.859 3.15503C15.859 2.72224 16.0198 2.38941 16.3415 2.15652C16.6632 1.92363 17.1255 1.80719 17.7287 1.80719C18.0034 1.80719 18.286 1.82563 18.5764 1.8625C18.8667 1.89743 19.1672 1.9508 19.4777 2.02261V2.02261Z" fill="#515151"/>
</svg>
